packages/web-icons/svgs/speechbubble_3.svg

<svg viewBox="0 0 54 48" xmlns="http://www.w3.org/2000/svg" class="ridi_icon"><path d="M33.8 0H20.2C9.5 0 .9 9.1.9 20.3c0 11.2 8.6 20.3 19.3 20.3h1.1l4.5 6.4c.7 1.3 1.8 1.3 2.4 0l4.5-6.4h1.1c10.7 0 19.3-9.1 19.3-20.3C53.1 9.1 44.5 0 33.8 0zM14.3 25.4c-2.5 0-4.5-2-4.5-4.5s2-4.5 4.5-4.5 4.5 2 4.5 4.5-2 4.5-4.5 4.5zm13 0c-2.5 0-4.5-2-4.5-4.5s2-4.5 4.5-4.5 4.5 2 4.5 4.5-2 4.5-4.5 4.5zm12.4 0c-2.5 0-4.5-2-4.5-4.5s2-4.5 4.5-4.5 4.5 2 4.5 4.5-2 4.5-4.5 4.5z"/></svg>

<?xml version="1.0" encoding="UTF-8"?>
<svg width="54px" height="48px" viewBox="0 0 54 48" version="1.1" xmlns="http://www.w3.org/2000/svg">
  <!-- Generator: Sketch 41.2 (35397) - http://www.bohemiancoding.com/sketch -->
  <title>speechbubble_3</title>
  <desc>Created with Sketch.</desc>
  <defs></defs>
  <g id="Page-1" stroke="none" stroke-width="1" fill="none" fill-rule="evenodd">
    <g id="speechbubble_3" fill="#000000">
      <g id="레이어_1">
        <path d="M33.8,0 L20.2,0 C9.5,0 0.9,9.1 0.9,20.3 C0.9,31.5 9.5,40.6 20.2,40.6 L21.3,40.6 L25.8,47 C26.5,48.3 27.6,48.3 28.2,47 L32.7,40.6 L33.8,40.6 C44.5,40.6 53.1,31.5 53.1,20.3 C53.1,9.1 44.5,0 33.8,0 Z M14.3,25.4 C11.8,25.4 9.8,23.4 9.8,20.9 C9.8,18.4 11.8,16.4 14.3,16.4 C16.8,16.4 18.8,18.4 18.8,20.9 C18.8,23.4 16.8,25.4 14.3,25.4 Z M27.3,25.4 C24.8,25.4 22.8,23.4 22.8,20.9 C22.8,18.4 24.8,16.4 27.3,16.4 C29.8,16.4 31.8,18.4 31.8,20.9 C31.8,23.4 29.8,25.4 27.3,25.4 Z M39.7,25.4 C37.2,25.4 35.2,23.4 35.2,20.9 C35.2,18.4 37.2,16.4 39.7,16.4 C42.2,16.4 44.2,18.4 44.2,20.9 C44.2,23.4 42.2,25.4 39.7,25.4 Z" id="Shape"></path>
      </g>
    </g>
  </g>
</svg>
